advanced/wallets/react-wallet-v2/public/icons/delete-icon.svg

<svg fill="none" height="512" viewBox="0 0 512 512" width="512" xmlns="http://www.w3.org/2000/svg"><path d="m112 112 20 320c.95 18.49 14.4 32 32 32h184c17.67 0 30.87-13.51 32-32l20-320" stroke="#f21361" stroke-linecap="round" stroke-linejoin="round" stroke-width="32"/><path d="m80 112h352z" fill="#f21361"/><g stroke="#f21361" stroke-linecap="round" stroke-width="32"><path d="m80 112h352" stroke-miterlimit="10"/><path d="m328 176-8 224m-128-288v-39.9999c-.009-3.1543.605-6.2793 1.808-9.1953s2.97-5.5654 5.201-7.7959c2.23-2.2304 4.88-3.9979 7.796-5.2007 2.916-1.2029 6.041-1.8173 9.195-1.8081h80c3.154-.0092 6.279.6052 9.195 1.8081 2.916 1.2028 5.566 2.9703 7.796 5.2007 2.231 2.2305 3.998 4.8799 5.201 7.7959s1.817 6.041 1.808 9.1953v39.9999zm64 64v224zm-72 0 8 224z" stroke-linejoin="round"/></g></svg>

<svg width="512" height="512" viewBox="0 0 512 512" fill="none" xmlns="http://www.w3.org/2000/svg">
<path d="M112 112L132 432C132.95 450.49 146.4 464 164 464H348C365.67 464 378.87 450.49 380 432L400 112" stroke="#F21361" stroke-width="32" stroke-linecap="round" stroke-linejoin="round"/>
<path d="M80 112H432Z" fill="#F21361"/>
<path d="M80 112H432" stroke="#F21361" stroke-width="32" stroke-miterlimit="10" stroke-linecap="round"/>
<path d="M328 176L320 400M192 112V72.0001C191.991 68.8458 192.605 65.7208 193.808 62.8048C195.011 59.8888 196.778 57.2394 199.009 55.0089C201.239 52.7785 203.889 51.011 206.805 49.8082C209.721 48.6053 212.846 47.9909 216 48.0001H296C299.154 47.9909 302.279 48.6053 305.195 49.8082C308.111 51.011 310.761 52.7785 312.991 55.0089C315.222 57.2394 316.989 59.8888 318.192 62.8048C319.395 65.7208 320.009 68.8458 320 72.0001V112H192ZM256 176V400V176ZM184 176L192 400L184 176Z" stroke="#F21361" stroke-width="32" stroke-linecap="round" stroke-linejoin="round"/>
</svg>
